P3
# Original CC0 color checker for deterministic model probes
8 8
255
255 0 0  255 64 0  255 128 0  255 192 0  255 255 0  192 255 0  128 255 0  64 255 0
255 0 64  255 64 64  255 128 64  255 192 64  255 255 64  192 255 64  128 255 64  64 255 64
255 0 128  255 64 128  255 128 128  255 192 128  255 255 128  192 255 128  128 255 128  64 255 128
255 0 192  255 64 192  255 128 192  255 192 192  255 255 192  192 255 192  128 255 192  64 255 192
192 0 255  192 64 255  192 128 255  192 192 255  192 255 255  128 255 255  64 255 255  0 255 255
128 0 255  128 64 255  128 128 255  128 192 255  128 255 255  64 255 255  0 255 255  0 192 255
64 0 255  64 64 255  64 128 255  64 192 255  64 255 255  0 255 255  0 192 255  0 128 255
0 0 255  0 64 255  0 128 255  0 192 255  0 255 255  0 192 192  0 128 128  0 64 64
